!!!!SEGMENT: pl-lzu--m-15111--001-031_noskowski-zygmunt--spiewnik-dla-dzieci-op-34-31-ogrodek.krn
!!!cenid: 18xx:4728
!!!COM: Noskowski, Zygmunt
!!!COM-rismID: pe106604
!!!CDT: 1846/05/02-1909/07/23
!!!CNT: Polish
!!!GTL: Śpiewnik dla dzieci, op. 34
!!!OTL: 31. Ogródek
!!!OMV: 031
!!!PDT: 1890
!!!AGN: Secular; Song; Children
!!!YEC: Copyright 2022 Narodowy Instytut Fryderyka Chopina (https://polishscores.org)
!!!YEM: License CC-BY-4.0 (https://creativecommons.org/licenses/by/4.0)
!!!SMS-siglum: PL-LŹu
!!!SMS-shelfmark: M 15111
!!!SMS-variant:
!!!SMS-altvar:
!!!SMS-shelfwork: 001-031 G
!!!NIFC-rismSourceID: 1001234040
!!!NIFC-rismChildID: 1001234040
!!!NIFC-islandoraID: pl-lzu:5455
!!!URL-pdf-islandora: https://repozytorium.nifc.pl/islandora/object/pl-lzu%3A5455/datastream/PDF/view
!!!URL-scan: https://polish.musicsources.pl/pl/lokalizacje/galeria/druki-muzyczne/23228/38 @EN{Scan on Polish Music Sources Website} @PL{Skany w portalu Dziedzictwo Muzyki Polskiej w otwartym dostępie}
!!!IIIF:
!!!ONB-nifc:
!!!AIN: 1 piano
!!!key: B-
!!!OMD: Allegro non troppo.
**kern	**kern	**dynam	**kern	**text	**text	**text	**dynam
*part2	*part2	*part2	*part1	*part1	*part1	*part1	*part1
*staff3	*staff2	*staff2,3	*staff1	*staff1	*staff1	*staff1	*staff1
*I"[Piano]	*I"[Piano]	*	*I"[Voice]	*	*	*	*
*I'pf	*I'pf	*	*	*	*	*	*
*Ipiano	*Ipiano	*	*	*	*	*	*
*ICklav	*ICklav	*	*	*	*	*	*
*IGacomp	*IGacomp	*	*	*	*	*	*
*>[A,B,B,B,C]	*>[A,B,B,B,C]	*>[A,B,B,B,C]	*>[A,B,B,B,C]	*>[A,B,B,B,C]	*>[A,B,B,B,C]	*>[A,B,B,B,C]	*>[A,B,B,B,C]
*>A	*>A	*>A	*>A	*>A	*>A	*>A	*>A
*clefF4	*clefG2	*	*clefG2	*	*	*	*
*k[b-e-]	*k[b-e-]	*	*k[b-e-]	*	*	*	*
*B-:	*B-:	*	*B-:	*	*	*	*
*M2/4	*M2/4	*	*M2/4	*	*	*	*
=1	=1	=1	=1	=1	=1	=1	=1
!	!LO:TX:a:i:t=Niezbyt prędko.	!	!	!	!	!	!
8BB-\L	8r	f	2r	.	.	.	.
8F\J 8B-	4d^>/ 4f	.	.	.	.	.	.
8BB-\L	.	.	.	.	.	.	.
8F\J 8B-	(16g/LL	.	.	.	.	.	.
.	16a/JJ	.	.	.	.	.	.
=2	=2	=2	=2	=2	=2	=2	=2
8BB-\L	8b-/)	.	2r	.	.	.	.
8F\J 8d	4f^/	.	.	.	.	.	.
8BB-\L	.	.	.	.	.	.	.
8F\J 8d	(16g/LL	.	.	.	.	.	.
.	16a/JJ	.	.	.	.	.	.
=3	=3	=3	=3	=3	=3	=3	=3
8BB-\L	16b-/LL	.	2r	.	.	.	.
.	16f/	.	.	.	.	.	.
8F\J 8d	16g/	.	.	.	.	.	.
.	16a/JJ	.	.	.	.	.	.
8BB-\L	16b-/LL	.	.	.	.	.	.
.	16f/	.	.	.	.	.	.
8F\J 8d	16g/	.	.	.	.	.	.
.	16a/JJ	.	.	.	.	.	.
=4	=4	=4	=4	=4	=4	=4	=4
8BB-\L	16b-/LL	.	2r	.	.	.	.
.	16f/	.	.	.	.	.	.
8F\J 8d	16g/	.	.	.	.	.	.
.	16a/JJ	.	.	.	.	.	.
8BB-\L	16b-/LL	.	.	.	.	.	.
.	16f/	.	.	.	.	.	.
8F\J 8d	16g/	.	.	.	.	.	.
.	16a/JJ)	.	.	.	.	.	.
!!LO:LB:g=original
=5!|:	=5!|:	=5!|:	=5!|:	=5!|:	=5!|:	=5!|:	=5!|:
*	*	*	*	*v:1	*v:2	*v:3	*
!	!	!	!	!	!	!	!LO:DY:rj
8BB-\L	8.b-/L	p	8.b-/	W na-	Po	A	mf
8F\J 8d	.	.	.	.	.	.	.
.	16a/Jk	.	16a/	-szym	sto	ta-	.
8BB-\L	8g/L	.	8g/	o-	li-	-ta	.
8G\J 8e-	8a/J	.	8a/	-gró-	-stków	się	.
=6	=6	=6	=6	=6	=6	=6	=6
8BB-\L	8b-/	.	8b-/	-de-	w ró-	py-	.
8F\J 8d	4f/	.	4f/	-czku	-ży,	-ta:	.
8D\L	.	.	.	.	.	.	.
8F\J 8B- 8d	8r	.	8r	.	.	.	.
=7	=7	=7	=7	=7	=7	=7	=7
8C\L	8.e-/L	.	8.e-/	Są	A	Gdzie	.
8G\J 8B-	.	.	.	.	.	.	.
.	16f/Jk	.	16f/	tam	po	te	.
8F\L	8g/L	.	8g/	śli-	pięć	kwia-	.
8A\J 8e-	8a/J	.	8a/	-czne	w bła-	-ty	.
=8	=8	=8	=8	=8	=8	=8	=8
8BB-\L	8b-\	.	8b-\	kwia-	-wa-	ro-	.
8F\J 8B- 8d	4dd\	.	4dd\	-ty:	-cie,	-sną?	.
8D\L	.	.	.	.	.	.	.
8F\J 8B- 8d	8r	.	8r	.	.	.	.
!!LO:LB:g=original
=9	=9	=9	=9	=9	=9	=9	=9
*	*	*	*	*v:1	*v:2	*v:3	*
8FF\L	8cc\	.	8cc\	Czer-	U-	To	.
8A\J 8e-	4a/	.	4a/	-wo-	-ło-	w na-	.
8F\L	.	.	.	.	.	.	.
8A\J 8e-	8f/	.	8f/	-ne	-żę	-szym	.
=10	=10	=10	=10	=10	=10	=10	=10
8BB-\L	8dd\	.	8dd\	ró-	wią-	o-	.
8B-\J 8d	4b-\	.	4b-\	-życz-	-zan-	-gród-	.
8F\L	.	.	.	.	.	.	.
8B-\J 8d	8g/	.	8g,/	-ki	-kę	-ku,	.
=11	=11	=11	=11	=11	=11	=11	=11
8C\L	8a/L	.	8a/	I	I	Gdziem	.
8F\J 8A 8e-	8g/	.	8g/	mo-	za-	je	.
8FF\L	8f/	.	8f/	-dre	-nio-	sia-	.
8F\J 8A	8e-/J	.	8e-/	bła-	-sę	-ła	.
=12	=12	=12	=12	=12	=12	=12	=12
8BB-\L	8d/	.	8d/	-wa-	ta-	wio-	.
8F\J 8B- 8d	4f/	.	4f/	-ty.	-cie.	-sną.	.
8D\L	.	.	.	.	.	.	.
8F\J 8B- 8d	8r	.	8r	.	.	.	.
=13	=13	=13	=13	=13	=13	=13	=13
8FF\L	8cc\	.	8cc\	Czer-	U-	To	.
8A\J 8e-	4a/	.	4a/	-wo-	-ło-	w na-	.
8F\L	.	.	.	.	.	.	.
8A\J 8e-	8f/	.	8f/	-ne	-żę	-szym	.
!!LO:PB:g=original
=14	=14	=14	=14	=14	=14	=14	=14
*	*	*	*	*v:1	*v:2	*v:3	*
8BB-\L	8dd\	.	8dd\	ró-	wią-	o-	.
8F\J 8B- 8d	(4b-/	.	4b-/	-życz-	-zan-	-gró-	.
8C\L	.	.	.	.	.	.	.
8B-\J 8en	16a/LL	.	(16a/LL	-ki	-kę	-(d)ku,	.
.	16g/JJ)	.	16g/JJ)	.	.	.	.
=15	=15	=15	=15	=15	=15	=15	=15
8FF/	8f/L	.	8f/	I	I	Gdziem	.
4F\ 4A 4e-X	8ee-/J	.	8ee-\	mo-	za-	je	.
.	8dd\L	.	8dd\	-dre	-nio-	sia-	.
8F\ 8A 8e-	8cc\J	.	8cc\	bła-	-sę	-ła	.
=16	=16	=16	=16	=16	=16	=16	=16
8BB-/	8dd\	.	8dd\	-wa-	ta-	wio-	.
4F\ 4B- 4d	4b-\	.	4b-\	-ty.	-cie.	-sną.	.
8F\ 8B- 8d	8r	.	8r	.	.	.	.
=17	=17	=17	=17	=17	=17	=17	=17
8BB-\L	8r	f	2r	.	.	.	.
8F\J 8B-	4d^/ 4f	.	.	.	.	.	.
8BB-\L	.	.	.	.	.	.	.
8F\J 8B-	(16g/LL	.	.	.	.	.	.
.	16a/JJ	.	.	.	.	.	.
!!LO:LB:g=original
=18	=18	=18	=18	=18	=18	=18	=18
8BB-\L	8b-/)	.	2r	.	.	.	.
8F\J 8d	4f^/	.	.	.	.	.	.
8BB-\L	.	.	.	.	.	.	.
8F\J 8d	(16g/LL	.	.	.	.	.	.
.	16a/JJ	.	.	.	.	.	.
=19	=19	=19	=19	=19	=19	=19	=19
8BB-\L	16b-/LL	.	2r	.	.	.	.
.	16f/	.	.	.	.	.	.
8F\J 8d	16g/	.	.	.	.	.	.
.	16a/JJ	.	.	.	.	.	.
8BB-\L	16b-/LL	.	.	.	.	.	.
.	16f/	.	.	.	.	.	.
8F\J 8d	16g/	.	.	.	.	.	.
.	16a/JJ	.	.	.	.	.	.
=20	=20	=20	=20	=20	=20	=20	=20
8BB-\L	16b-/LL	.	2r	.	.	.	.
.	16f/	.	.	.	.	.	.
8F\J 8d	16g/	.	.	.	.	.	.
.	16a/JJ	.	.	.	.	.	.
8BB-\L	16b-/LL	.	.	.	.	.	.
.	16f/	.	.	.	.	.	.
8F\J 8d	16g/	.	.	.	.	.	.
.	16a/JJ)	.	.	.	.	.	.
=21:|!	=21:|!	=21:|!	=21:|!	=21:|!	=21:|!	=21:|!	=21:|!
8BB-/	8b-\	.	2r	.	.	.	.
8r	8r	.	.	.	.	.	.
8B-^\ 8f	8b-^\ 8dd 8ff 8bb-	.	.	.	.	.	.
8r	8r	.	.	.	.	.	.
=22	=22	=22	=22	=22	=22	=22	=22
4BB-^\ 4F 4B-	4d^/ 4f 4b-	.	2r	.	.	.	.
4r	4r	.	.	.	.	.	.
==	==	==	==	==	==	==	==
*-	*-	*-	*-	*-	*-	*-	*-
!!!system-decoration: p1{p2}
!!!RDF**kern: > = above
!!!RDF**kern: < = below
!!!ENC: Andrzej Gręziak
!!!END: 2025-03-06
!!!ENC: Marta Lawrence
!!!END: 2025-03-22
